public/Group 18.svg

<svg width="229" height="216" viewBox="0 0 229 216" fill="none" xmlns="http://www.w3.org/2000/svg">
<path d="M113.541 0C116.459 0.284019 118.707 2.1289 120.737 4.11333C133.183 16.2792 148.004 28.1232 159.812 40.8682C159.614 36.1251 158.463 22.4885 160.32 18.9757C163.802 16.2516 187.172 16.3175 190.887 18.9391C192.995 22.3749 191.975 63.5679 191.628 70.0114C196.596 75.3995 227.531 101.146 228.073 104.723C228.28 106.085 227.891 107.456 227.049 108.543C226.114 109.752 224.602 110.636 223.065 110.734C220.16 110.92 205.704 96.5223 202.575 93.8537C202.314 100.561 202.685 108.316 202.639 115.2L202.576 181.634C202.566 190.947 202.756 200.261 202.603 209.563C202.533 213.768 200.181 215.09 196.262 215.355C189.855 215.787 183.282 215.534 176.843 215.501C164.837 215.406 152.83 215.405 140.824 215.496C106.245 215.165 71.4505 215.479 36.8602 215.557C35 215.53 28.035 215.371 26.9421 213.756C24.231 209.751 25.1292 199.071 25.1416 194.194L25.191 168.648C25.198 143.992 24.7773 118.096 25.5471 93.524C21.9505 97.7188 10.0265 109.014 5.17363 111.22C-3.24404 106.023 -0.0966294 103.95 5.46754 98.5948C15.9677 88.4895 26.7351 78.7559 37.4863 68.928L79.0684 30.4719C89.2339 20.996 99.3113 11.0858 109.608 1.7214C110.639 0.783726 112.201 0.372105 113.541 0ZM113.45 205.324L167.304 205.311C174.794 205.306 185.377 204.917 192.599 205.239L192.545 84.9553C183.155 76.8896 116.562 12.9768 113.654 12.1519C88.3172 36.6767 61.4031 60.8738 35.5252 84.9108C36.3955 102.997 35.6142 127.634 35.5989 146.122L35.5656 184.892C35.5615 191.089 35.7879 199.233 35.4952 205.224C61.3612 205.553 87.5597 205.336 113.45 205.324ZM169.179 49.3661C173.67 53.0184 177.751 57.8332 181.834 61.0006C182.528 59.9967 182.074 54.7789 182.069 53.1358C182.04 44.6259 181.812 36.0708 182.074 27.5613C177.871 27.3082 174.274 27.2654 170.058 27.279C169.828 27.5198 169.598 27.7605 169.367 28.0018C169.112 34.2444 169.689 43.4618 169.179 49.3661Z" fill="#FD6610"/>
<path d="M114.559 104.327C120.55 98.7029 126.889 95.0869 135.319 95.0498C142.217 94.9897 148.838 97.7632 153.634 102.722C159.252 108.479 161.733 115.86 161.755 123.858C161.803 141.02 144.82 152.63 133.06 163.857C127.047 168.413 120.925 175.897 114.57 179.209C105.174 174.689 92.8338 159.308 84.0328 152.664C80.8315 150.248 74.6453 143.466 72.4867 140.182C69.6233 135.886 67.9208 130.922 67.5453 125.773C66.3771 110.419 75.9363 96.3633 91.9541 95.2531C100.718 93.817 108.68 98.1864 114.559 104.327ZM114.524 167.627C118.59 163.718 122.714 159.869 126.893 156.081C129.068 154.14 132.445 151.471 134.283 149.516C137.965 145.929 141.676 142.278 145.398 138.703C157.323 127.25 153.31 105.606 135.029 104.368C124.351 103.645 119.795 116.697 114.369 117.666C108.618 116.565 108.557 104.105 92.0274 104.639C88.6395 105.54 85.9832 106.262 83.3092 108.599C75.5802 115.353 75.5427 129.112 81.8071 136.777C85.3094 141.062 90.0095 145.047 94.0424 148.767L114.524 167.627Z" fill="#FD6610"/>
</svg>

<svg xmlns="http://www.w3.org/2000/svg" width="229" height="216" fill="none" viewBox="0 0 229 216"><path fill="#fd6610" d="M113.54 0c2.92.28 5.17 2.13 7.2 4.11C133.18 16.28 148 28.12 159.8 40.87c-.2-4.74-1.35-18.38.51-21.9 3.48-2.72 26.85-2.65 30.57-.03 2.1 3.43 1.09 44.63.74 51.07 4.97 5.39 35.9 31.14 36.44 34.71a5 5 0 0 1-1.02 3.82 5.7 5.7 0 0 1-3.99 2.2c-2.9.18-17.36-14.22-20.49-16.89-.26 6.71.12 14.47.07 21.35l-.06 66.43c-.01 9.32.18 18.63.02 27.93-.07 4.2-2.42 5.53-6.34 5.8-6.4.43-12.98.17-19.42.14q-18-.15-36.02 0c-34.57-.34-69.37-.02-103.96.06-1.86-.03-8.82-.19-9.92-1.8-2.7-4-1.81-14.69-1.8-19.57l.05-25.54c0-24.66-.41-50.55.36-75.13-3.6 4.2-15.52 15.5-20.38 17.7-8.41-5.2-5.27-7.27.3-12.63 10.5-10.1 21.27-19.83 32.02-29.66l41.58-38.46C89.23 21 99.3 11.1 109.6 1.72c1.03-.94 2.6-1.35 3.93-1.72m-.09 205.32h53.85c7.5-.01 18.08-.4 25.3-.08l-.06-120.28c-9.38-8.07-75.98-71.98-78.89-72.8C88.32 36.67 61.4 60.86 35.53 84.9c.87 18.09.08 42.72.07 61.21l-.03 38.77c0 6.2.22 14.34-.07 20.33 25.86.33 52.06.12 77.95.1m55.73-155.95c4.49 3.65 8.57 8.46 12.65 11.63.7-1 .24-6.22.24-7.86-.03-8.51-.26-17.07 0-25.58-4.2-.25-7.8-.3-12.01-.28l-.7.72c-.25 6.24.33 15.46-.18 21.37"/><path fill="#fd6610" d="M114.56 104.33c5.99-5.63 12.33-9.24 20.76-9.28a25.2 25.2 0 0 1 18.31 7.67c5.62 5.76 8.1 13.14 8.13 21.14.04 17.16-16.94 28.77-28.7 40-6.01 4.55-12.14 12.04-18.49 15.35-9.4-4.52-21.74-19.9-30.54-26.55-3.2-2.41-9.38-9.2-11.54-12.48a30 30 0 0 1-4.94-14.4c-1.17-15.36 8.39-29.42 24.4-30.53 8.77-1.43 16.73 2.94 22.6 9.08m-.04 63.3q6.11-5.86 12.37-11.55c2.18-1.94 5.55-4.6 7.4-6.56 3.68-3.6 7.39-7.24 11.1-10.82 11.93-11.45 7.92-33.1-10.36-34.33-10.68-.73-15.23 12.33-20.66 13.3-5.75-1.1-5.81-13.56-22.34-13.03-3.4.9-6.05 1.62-8.72 3.96-7.73 6.75-7.77 20.51-1.5 28.18 3.5 4.28 8.2 8.27 12.23 11.99z"/></svg>
